invoice-text-send-outline.svg

<svg  viewBox="0 0 24 24" fill="currentColor"><path  d="M24 18L14 23V19L18 18L14 17V13L24 18M21 14.26L19 13.26V5H5V18.26L6 17.6L9 19.6L12 17.6V20L9 22L6 20L3 22V3H21V14.26M17 7V9H7V7H17M12 13V11H7V13H12Z"/></svg>

<svg fill="currentColor" viewBox="0 0 24 24"><path d="m24 18-10 5v-4l4-1-4-1v-4zm-3-3.74-2-1V5H5v13.26l1-.66 3 2 3-2V20l-3 2-3-2-3 2V3h18zM17 7v2H7V7zm-5 6v-2H7v2z"/></svg>
